src/lib/packages/icons/src/assets/line/trophy.svg

<svg width="24" height="24" viewBox="0 0 24 24" fill="none" xmlns="http://www.w3.org/2000/svg">
<path d="M20 4.25H18.725C18.599 3.128 17.655 2.25 16.5 2.25H7.5C6.345 2.25 5.40202 3.128 5.27502 4.25H4C3.035 4.25 2.25 5.035 2.25 6V7.65002C2.25 10.196 4.18899 11.471 5.81799 11.702C6.76599 13.863 8.813 15.435 11.25 15.706V17.304C9.312 17.561 8.25 18.847 8.25 21V21.75H15.75V21C15.75 18.847 14.688 17.562 12.75 17.304V15.706C15.186 15.435 17.233 13.863 18.182 11.702C19.811 11.471 21.75 10.196 21.75 7.65002V6C21.75 5.035 20.965 4.25 20 4.25ZM3.75 7.65002V6C3.75 5.862 3.862 5.75 4 5.75H5.25V9C5.25 9.347 5.28496 9.68598 5.33496 10.019C4.55296 9.69198 3.75 8.98102 3.75 7.65002ZM14.187 20.25H9.81396C10.015 19.207 10.701 18.75 12.001 18.75C13.301 18.75 13.985 19.207 14.187 20.25ZM12.0031 14.25C12.0021 14.25 12.001 14.249 12 14.249C11.999 14.249 11.9979 14.25 11.9969 14.25C9.10395 14.248 6.75 11.894 6.75 9V4.5C6.75 4.086 7.087 3.75 7.5 3.75H16.5C16.913 3.75 17.25 4.086 17.25 4.5V9C17.25 11.894 14.8961 14.248 12.0031 14.25ZM20.25 7.65002C20.25 8.98102 19.447 9.69198 18.665 10.019C18.716 9.68598 18.75 9.347 18.75 9V5.75H20C20.138 5.75 20.25 5.862 20.25 6V7.65002Z" fill="currentColor"/>
</svg>

<svg xmlns="http://www.w3.org/2000/svg" width="24" height="24" fill="none"><path fill="currentColor" d="M20 4.25h-1.275a2.245 2.245 0 0 0-2.225-2h-9a2.246 2.246 0 0 0-2.225 2H4c-.965 0-1.75.785-1.75 1.75v1.65c0 2.546 1.939 3.821 3.568 4.052a6.763 6.763 0 0 0 5.432 4.004v1.598c-1.938.257-3 1.543-3 3.696v.75h7.5V21c0-2.153-1.062-3.438-3-3.696v-1.598a6.765 6.765 0 0 0 5.432-4.004c1.629-.231 3.568-1.506 3.568-4.052V6c0-.965-.785-1.75-1.75-1.75ZM3.75 7.65V6A.25.25 0 0 1 4 5.75h1.25V9c0 .347.035.686.085 1.019C4.553 9.692 3.75 8.981 3.75 7.65Zm10.437 12.6H9.814c.201-1.043.887-1.5 2.187-1.5 1.3 0 1.984.457 2.186 1.5Zm-2.184-6L12 14.249l-.003.001A5.256 5.256 0 0 1 6.75 9V4.5a.75.75 0 0 1 .75-.75h9a.75.75 0 0 1 .75.75V9a5.256 5.256 0 0 1-5.247 5.25Zm8.247-6.6c0 1.331-.803 2.042-1.585 2.369.051-.333.085-.672.085-1.019V5.75H20a.25.25 0 0 1 .25.25v1.65Z"/></svg>
